X: 1
T: High Hill, The
M: 4/4
L: 1/8
R: reel
K: Dmaj
FG |: ADED A,D (3DDD | FGAc dcAG | ADED A,DEF | GE=CE G2 FG |
ADED A,D (3DDD | FGAB =cBce | d=cAG EFGc | AGE=C DEFG :|
|: Addc d2 cd | ed (3ddd edd=c | A^GAB =cBcd| e=c (3ccc ecdc |
Addc d2 fd | ed (3ddd edd=c | A^GAB =cded |1 =cAGE DEFG :|2 =cAGE DA=cB ||
